static/img/kroki/b610f4be8d20e660f2db44784e06e751.svg

<?xml version="1.0" encoding="us-ascii" standalone="no"?><svg xmlns="http://www.w3.org/2000/svg" xmlns:xlink="http://www.w3.org/1999/xlink" contentStyleType="text/css" height="374px" preserveAspectRatio="none" style="width:358px;height:374px;" version="1.1" viewBox="0 0 358 374" width="358px" zoomAndPan="magnify"><defs/><g><!--class aws_ec2_route_table--><g id="elem_aws_ec2_route_table"><rect codeLine="23" fill="#3D176E" height="39.7891" id="aws_ec2_route_table" rx="2.5" ry="2.5" style="stroke:#000D19;stroke-width:0.5;" width="218" x="69.5" y="328.58"/><ellipse cx="84.5" cy="348.4745" fill="#ADD1B2" rx="11" ry="11" style="stroke:#181818;stroke-width:1.0;"/><path d="M87.4688,354.1152 Q86.8906,354.412 86.25,354.5527 Q85.6094,354.7089 84.9063,354.7089 Q82.4063,354.7089 81.0781,353.0683 Q79.7656,351.412 79.7656,348.287 Q79.7656,345.162 81.0781,343.5058 Q82.4063,341.8495 84.9063,341.8495 Q85.6094,341.8495 86.25,342.0058 Q86.9063,342.162 87.4688,342.4589 L87.4688,345.1777 Q86.8438,344.5995 86.25,344.3339 Q85.6563,344.0527 85.0313,344.0527 Q83.6875,344.0527 83,345.1308 Q82.3125,346.1933 82.3125,348.287 Q82.3125,350.3808 83,351.4589 Q83.6875,352.5214 85.0313,352.5214 Q85.6563,352.5214 86.25,352.2558 Q86.8438,351.9745 87.4688,351.3964 L87.4688,354.1152 Z " fill="#000000"/><text fill="#D9B8FF" font-family="Helvetica" font-size="17" lengthAdjust="spacing" textLength="176" x="103.5" y="354.3598">aws_ec2_route_table</text></g><!--class aws_resource--><g id="elem_aws_resource"><rect codeLine="26" fill="#3D176E" height="39.7891" id="aws_resource" rx="2.5" ry="2.5" style="stroke:#000D19;stroke-width:0.5;" width="155" x="7" y="167.79"/><ellipse cx="22" cy="187.6845" fill="#ADD1B2" rx="11" ry="11" style="stroke:#181818;stroke-width:1.0;"/><path d="M24.9688,193.3252 Q24.3906,193.622 23.75,193.7627 Q23.1094,193.9189 22.4063,193.9189 Q19.9063,193.9189 18.5781,192.2783 Q17.2656,190.622 17.2656,187.497 Q17.2656,184.372 18.5781,182.7158 Q19.9063,181.0595 22.4063,181.0595 Q23.1094,181.0595 23.75,181.2158 Q24.4063,181.372 24.9688,181.6689 L24.9688,184.3877 Q24.3438,183.8095 23.75,183.5439 Q23.1563,183.2627 22.5313,183.2627 Q21.1875,183.2627 20.5,184.3408 Q19.8125,185.4033 19.8125,187.497 Q19.8125,189.5908 20.5,190.6689 Q21.1875,191.7314 22.5313,191.7314 Q23.1563,191.7314 23.75,191.4658 Q24.3438,191.1845 24.9688,190.6064 L24.9688,193.3252 Z " fill="#000000"/><text fill="#D9B8FF" font-family="Helvetica" font-size="17" lengthAdjust="spacing" textLength="113" x="41" y="193.5698">aws_resource</text></g><!--class resource--><g id="elem_resource"><rect codeLine="29" fill="#3D176E" height="39.7891" id="resource" rx="2.5" ry="2.5" style="stroke:#000D19;stroke-width:0.5;" width="113" x="122" y="7"/><ellipse cx="137" cy="26.8945" fill="#ADD1B2" rx="11" ry="11" style="stroke:#181818;stroke-width:1.0;"/><path d="M139.9688,32.5352 Q139.3906,32.832 138.75,32.9727 Q138.1094,33.1289 137.4063,33.1289 Q134.9063,33.1289 133.5781,31.4883 Q132.2656,29.832 132.2656,26.707 Q132.2656,23.582 133.5781,21.9258 Q134.9063,20.2695 137.4063,20.2695 Q138.1094,20.2695 138.75,20.4258 Q139.4063,20.582 139.9688,20.8789 L139.9688,23.5977 Q139.3438,23.0195 138.75,22.7539 Q138.1563,22.4727 137.5313,22.4727 Q136.1875,22.4727 135.5,23.5508 Q134.8125,24.6133 134.8125,26.707 Q134.8125,28.8008 135.5,29.8789 Q136.1875,30.9414 137.5313,30.9414 Q138.1563,30.9414 138.75,30.6758 Q139.3438,30.3945 139.9688,29.8164 L139.9688,32.5352 Z " fill="#000000"/><text fill="#D9B8FF" font-family="Helvetica" font-size="17" lengthAdjust="spacing" textLength="71" x="156" y="32.7798">resource</text></g><!--class routing_table--><g id="elem_routing_table"><rect codeLine="32" fill="#3D176E" height="39.7891" id="routing_table" rx="2.5" ry="2.5" style="stroke:#000D19;stroke-width:0.5;" width="154" x="197.5" y="167.79"/><ellipse cx="212.5" cy="187.6845" fill="#ADD1B2" rx="11" ry="11" style="stroke:#181818;stroke-width:1.0;"/><path d="M215.4688,193.3252 Q214.8906,193.622 214.25,193.7627 Q213.6094,193.9189 212.9063,193.9189 Q210.4063,193.9189 209.0781,192.2783 Q207.7656,190.622 207.7656,187.497 Q207.7656,184.372 209.0781,182.7158 Q210.4063,181.0595 212.9063,181.0595 Q213.6094,181.0595 214.25,181.2158 Q214.9063,181.372 215.4688,181.6689 L215.4688,184.3877 Q214.8438,183.8095 214.25,183.5439 Q213.6563,183.2627 213.0313,183.2627 Q211.6875,183.2627 211,184.3408 Q210.3125,185.4033 210.3125,187.497 Q210.3125,189.5908 211,190.6689 Q211.6875,191.7314 213.0313,191.7314 Q213.6563,191.7314 214.25,191.4658 Q214.8438,191.1845 215.4688,190.6064 L215.4688,193.3252 Z " fill="#000000"/><text fill="#D9B8FF" font-family="Helvetica" font-size="17" lengthAdjust="spacing" textLength="112" x="231.5" y="193.5698">routing_table</text></g><!--reverse link aws_resource to aws_ec2_route_table--><g id="link_aws_resource_aws_ec2_route_table"><path codeLine="35" d="M105.0105,223.3288 C123.0805,253.8488 149.03,297.69 167.12,328.25 " fill="none" id="aws_resource-backto-aws_ec2_route_table" style="stroke:#FFAF37;stroke-width:2.0;"/><polygon fill="none" points="95.84,207.84,99.8475,226.3856,110.1734,220.272,95.84,207.84" style="stroke:#FFAF37;stroke-width:2.0;"/></g><!--reverse link routing_table to aws_ec2_route_table--><g id="link_routing_table_aws_ec2_route_table"><path codeLine="36" d="M253.6079,223.2441 C235.1579,253.7641 208.6,297.69 190.12,328.25 " fill="none" id="routing_table-backto-aws_ec2_route_table" style="stroke:#FFAF37;stroke-width:2.0;"/><polygon fill="none" points="262.92,207.84,248.4732,220.14,258.7426,226.3481,262.92,207.84" style="stroke:#FFAF37;stroke-width:2.0;"/></g><!--reverse link resource to aws_resource--><g id="link_resource_aws_resource"><path codeLine="37" d="M157.9895,62.5388 C139.9195,93.0588 113.97,136.9 95.88,167.46 " fill="none" id="resource-backto-aws_resource" style="stroke:#FFAF37;stroke-width:2.0;"/><polygon fill="none" points="167.16,47.05,152.8266,59.482,163.1525,65.5956,167.16,47.05" style="stroke:#FFAF37;stroke-width:2.0;"/></g><!--reverse link resource to routing_table--><g id="link_resource_routing_table"><path codeLine="38" d="M199.3921,62.4541 C217.8421,92.9741 244.4,136.9 262.88,167.46 " fill="none" id="resource-backto-routing_table" style="stroke:#FFAF37;stroke-width:2.0;"/><polygon fill="none" points="190.08,47.05,194.2574,65.5581,204.5268,59.35,190.08,47.05" style="stroke:#FFAF37;stroke-width:2.0;"/></g><!--SRC=[XP1BRy8m48Jl-HMME4SYe3P4wWMGglQ2gj8xsiHhi9BOqNhJY3x-UqCfbPFmkCvyEpkxEorHO5dnNfHOfaWkSBas5H2KOavacwKjB8cHKg2cSTzyj8Pl0YieKJnXyOwiC-WJRpkTvGQT4nFFMa2MRydMHXxZcS2uraB37hKimBavC-cqPlJAo2ITATKd-w6ZgOpYUnnWbYJI7p8UZsMKz96RgwxU_K-izGUAo7_QoZ8EQWvM_59NMnu8h-JWq9D_iUCBIAdDLjnvskkn4ncaZhxUWRJDWLPGE7-DOoIqlAzmERWAavbKyLdu-H8SP8VN2MZS1hF9fYKODmnfWU8p2Buzcz3PchAEVbPh8zhcVaXd_E4h3CDp2uFkv1Lk67MI-budClW1]--></g></svg>

<svg xmlns="http://www.w3.org/2000/svg" width="358" height="374" viewBox="0 0 358 374"><rect width="218" height="39.789" x="69.5" y="328.58" fill="#3D176E" rx="2.5" ry="2.5" style="stroke:#000d19;stroke-width:.5"/><circle cx="84.5" cy="348.474" r="11" fill="#ADD1B2" style="stroke:#181818;stroke-width:1"/><path d="M87.469 354.115q-.578.297-1.219.438-.64.156-1.344.156-2.5 0-3.828-1.64-1.312-1.657-1.312-4.782t1.312-4.781q1.328-1.656 3.828-1.656.703 0 1.344.156.656.156 1.219.453v2.719q-.625-.579-1.219-.844-.594-.281-1.219-.281-1.344 0-2.031 1.078-.687 1.062-.687 3.156t.687 3.172q.688 1.062 2.031 1.062.625 0 1.219-.265.594-.281 1.219-.86z"/><text x="103.5" y="354.36" fill="#D9B8FF" font-family="Helvetica" font-size="17" textLength="176">aws_ec2_route_table</text><rect width="155" height="39.789" x="7" y="167.79" fill="#3D176E" rx="2.5" ry="2.5" style="stroke:#000d19;stroke-width:.5"/><circle cx="22" cy="187.685" r="11" fill="#ADD1B2" style="stroke:#181818;stroke-width:1"/><path d="M24.969 193.325q-.578.297-1.219.438-.64.156-1.344.156-2.5 0-3.828-1.64-1.312-1.657-1.312-4.782t1.312-4.781q1.328-1.656 3.828-1.656.703 0 1.344.156.656.156 1.219.453v2.719q-.625-.578-1.219-.844-.594-.281-1.219-.281-1.343 0-2.031 1.078-.687 1.062-.687 3.156t.687 3.172q.688 1.062 2.031 1.062.625 0 1.219-.265.594-.281 1.219-.86z"/><text x="41" y="193.57" fill="#D9B8FF" font-family="Helvetica" font-size="17" textLength="113">aws_resource</text><rect width="113" height="39.789" x="122" y="7" fill="#3D176E" rx="2.5" ry="2.5" style="stroke:#000d19;stroke-width:.5"/><circle cx="137" cy="26.895" r="11" fill="#ADD1B2" style="stroke:#181818;stroke-width:1"/><path d="M139.969 32.535q-.578.297-1.219.438-.64.156-1.344.156-2.5 0-3.828-1.64-1.312-1.657-1.312-4.782t1.312-4.781q1.328-1.656 3.828-1.656.703 0 1.344.156.656.156 1.219.453v2.719q-.625-.578-1.219-.844-.594-.281-1.219-.281-1.344 0-2.031 1.078-.687 1.062-.687 3.156t.687 3.172q.688 1.062 2.031 1.062.625 0 1.219-.265.594-.281 1.219-.86z"/><text x="156" y="32.78" fill="#D9B8FF" font-family="Helvetica" font-size="17" textLength="71">resource</text><rect width="154" height="39.789" x="197.5" y="167.79" fill="#3D176E" rx="2.5" ry="2.5" style="stroke:#000d19;stroke-width:.5"/><circle cx="212.5" cy="187.685" r="11" fill="#ADD1B2" style="stroke:#181818;stroke-width:1"/><path d="M215.469 193.325q-.578.297-1.219.438-.64.156-1.344.156-2.5 0-3.828-1.64-1.312-1.657-1.312-4.782t1.312-4.781q1.328-1.656 3.828-1.656.703 0 1.344.156.656.156 1.219.453v2.719q-.625-.578-1.219-.844-.594-.281-1.219-.281-1.344 0-2.031 1.078-.687 1.062-.687 3.156t.687 3.172q.688 1.062 2.031 1.062.625 0 1.219-.265.594-.281 1.219-.86z"/><text x="231.5" y="193.57" fill="#D9B8FF" font-family="Helvetica" font-size="17" textLength="112">routing_table</text><path fill="none" d="M105.01 223.329c18.07 30.52 44.02 74.361 62.11 104.921M95.84 207.84l4.007 18.546 10.326-6.114z" style="stroke:#ffaf37;stroke-width:2"/><g fill="none"><path d="M253.608 223.244c-18.45 30.52-45.008 74.446-63.488 105.006" style="stroke:#ffaf37;stroke-width:2"/><path d="m262.92 207.84-14.447 12.3 10.27 6.208z" style="stroke:#ffaf37;stroke-width:2"/></g><g fill="none"><path d="M157.99 62.539c-18.07 30.52-44.02 74.361-62.11 104.921" style="stroke:#ffaf37;stroke-width:2"/><path d="m167.16 47.05-14.333 12.432 10.326 6.114z" style="stroke:#ffaf37;stroke-width:2"/></g><g fill="none"><path d="M199.392 62.454c18.45 30.52 45.008 74.446 63.488 105.006" style="stroke:#ffaf37;stroke-width:2"/><path d="m190.08 47.05 4.177 18.508 10.27-6.208z" style="stroke:#ffaf37;stroke-width:2"/></g></svg>
